src/icons/IconPressure/IconPressure_size_m.svg

<svg width="24" height="24" viewBox="0 0 24 24" fill="none" xmlns="http://www.w3.org/2000/svg">
  <path
    d="M14.071 13.4853L12.6432 11.8943C12.4413 11.9629 12.225 12 12 12C10.8954 12 9.99998 11.1046 9.99998 10C9.99998 9.69864 10.0666 9.41281 10.186 9.1565L7.38202 6.03218L8.08913 5.32507L11.2029 8.16517C11.4471 8.05894 11.7167 8.00003 12 8.00003C13.1046 8.00003 14 8.89546 14 10C14 10.2184 13.965 10.4287 13.9003 10.6254L15.4853 12.0711L14.071 13.4853Z"
    fill="black"
  />
  <path
    fill-rule="evenodd"
    clip-rule="evenodd"
    d="M21 10C21 13.9187 18.4956 17.2524 15 18.4879V20H17V22H7V20H9V18.4879C5.50442 17.2524 3 13.9187 3 10C3 5.02944 7.02944 1 12 1C16.9706 1 21 5.02944 21 10ZM12 17C15.866 17 19 13.866 19 10C19 6.13401 15.866 3 12 3C8.13401 3 5 6.13401 5 10C5 13.866 8.13401 17 12 17Z"
    fill="black"
  />
</svg>

<svg viewBox="0 0 24 24" xmlns="http://www.w3.org/2000/svg">
  <path
    d="M14.071 13.485l-1.428-1.59a2 2 0 01-2.457-2.738L7.382 6.031l.707-.707 3.114 2.84a2 2 0 012.697 2.46l1.585 1.446-1.414 1.414z"
  />
  <path
    fill-rule="evenodd"
    clip-rule="evenodd"
    d="M21 10a9.004 9.004 0 01-6 8.488V20h2v2H7v-2h2v-1.512A9 9 0 1121 10zm-9 7a7 7 0 100-14 7 7 0 000 14z"
  />
</svg>
